X:183
T: Jesus im Garten
N: A0542B
O: Europa, Mitteleuropa, Deutschland
N: Speiersches Gsgb. 1617 fol 33b.
R: Romanze, Ballade, Lied, religioeses Lied
M: 4/2
L: 1/2
K: F
c | cdcB | AGF2 | z
FAB | cGAB | c2z
A | Bcdc | BAB2 | z
AGA | Bcc=B | c3

